recipes/telegram-react/icon.svg

<svg height="80" viewBox="0 0 80 80" width="80" xmlns="http://www.w3.org/2000/svg" xmlns:xlink="http://www.w3.org/1999/xlink"><defs><path id="a" d="m39.9821723.03550562c-22.0814981 0-39.9821723 17.90052438-39.9821723 39.98217228s17.9006742 39.9823221 39.9821723 39.9823221c22.0816479 0 39.9823221-17.9006742 39.9823221-39.9823221s-17.9006742-39.98217228-39.9823221-39.98217228z"/><mask id="b" fill="#fff"><use fill="#fff" fill-rule="evenodd" xlink:href="#a"/></mask></defs><g fill="none" fill-rule="evenodd"><use fill="#08c" xlink:href="#a"/><g mask="url(#b)"><g transform="translate(14.23221 21.573034)"><path d="m45.2046742 1.4619176-7.1411236 36.0049438s-.9988015 2.4969289-3.7453184 1.2982772l-16.4794007-12.6343071-5.9925094-2.8961798-10.08734083-3.3959551s-1.54801498-.5490636-1.69782771-1.7475655c-.14981274-1.1985019 1.74771535-1.8477903 1.74771535-1.8477903l40.09992509-15.73033705s3.2958802-1.44808989 3.2958802.94891385" fill="#fefefe"/><path d="m16.5721498 37.0625618s-.4810487-.0450936-1.0802996-1.9429214c-.5992509-1.897528-3.6455431-11.8849438-3.6455431-11.8849438l24.2197753-15.38082394s1.3982022-.84883895 1.3483146 0c0 0 .2497378.14981273-.4993258.84898876-.7490637.69917603-19.0262173 17.12838948-19.0262173 17.12838948" fill="#d3e5f1"/><path d="m24.1574532 30.975236-6.5183521 5.9430711s-.5095131.3865169-1.0669663.1442697l1.2480899-11.0391011" fill="#b6d0e4"/></g></g></g></svg>

<?xml version="1.0" encoding="UTF-8" standalone="no"?>
<svg width="80px" height="80px" viewBox="0 0 80 80" version="1.1" xmlns="http://www.w3.org/2000/svg" xmlns:xlink="http://www.w3.org/1999/xlink">
    <!-- Generator: Sketch 3.7.2 (28276) - http://www.bohemiancoding.com/sketch -->
    <title>telegram</title>
    <desc>Created with Sketch.</desc>
    <defs>
        <path d="M39.9821723,0.035505618 C17.9006742,0.035505618 0,17.93603 0,40.0176779 L0,40.0176779 C0,62.0993258 17.9006742,80 39.9821723,80 L39.9821723,80 C62.0638202,80 79.9644944,62.0993258 79.9644944,40.0176779 L79.9644944,40.0176779 C79.9644944,17.93603 62.0638202,0.035505618 39.9821723,0.035505618 L39.9821723,0.035505618 Z" id="path-1"></path>
    </defs>
    <g id="icons" stroke="none" stroke-width="1" fill="none" fill-rule="evenodd">
        <g id="telegram">
            <g id="Page-1">
                <g id="Group-3"></g>
                <mask id="mask-2" fill="white">
                    <use xlink:href="#path-1"></use>
                </mask>
                <use id="Clip-2" fill="#0088CC" xlink:href="#path-1"></use>
                <g id="Group-10" mask="url(#mask-2)">
                    <g transform="translate(14.232210, 21.573034)">
                        <path d="M45.2046742,1.4619176 L38.0635506,37.4668614 C38.0635506,37.4668614 37.0647491,39.9637903 34.3182322,38.7651386 L17.8388315,26.1308315 L11.8463221,23.2346517 L1.75898127,19.8386966 C1.75898127,19.8386966 0.210966292,19.289633 0.0611535581,18.0911311 C-0.088659176,16.8926292 1.80886891,16.2433408 1.80886891,16.2433408 L41.908794,0.513003745 C41.908794,0.513003745 45.2046742,-0.935086142 45.2046742,1.4619176" id="Fill-4" fill="#FEFEFE"></path>
                        <path d="M16.5721498,37.0625618 C16.5721498,37.0625618 16.0911011,37.0174682 15.4918502,35.1196404 C14.8925993,33.2221124 11.8463071,23.2346966 11.8463071,23.2346966 L36.0660824,7.85387266 C36.0660824,7.85387266 37.4642846,7.00503371 37.414397,7.85387266 C37.414397,7.85387266 37.6641348,8.00368539 36.9150712,8.70286142 C36.1660075,9.40203745 17.8888539,25.8312509 17.8888539,25.8312509" id="Fill-6" fill="#D3E5F1"></path>
                        <path d="M24.1574532,30.975236 L17.6391011,36.9183071 C17.6391011,36.9183071 17.129588,37.304824 16.5721348,37.0625768 L17.8202247,26.0234757" id="Fill-8" fill="#B6D0E4"></path>
                    </g>
                </g>
            </g>
        </g>
    </g>
</svg>
